X: 38016
T: Spellan The Fiddler
R: hornpipe
M: 4/4
K: Gmajor
|:~G2 BG dBga|bged cBAG|FdB/^c/d Ad^cd|g/f/e dc ADEF|
G2 BG dBga|bged cBAd|g/f/e cA edBG|FA (3DEF ~G3:|
g|bgdB GBdg|fecA FAcg|fgab c'bag|fedc BAGF|
~G2 BG dBga|bged cBAd|g/f/e cA edBG|FA (3DEF GB d|
bgdB GBdg|fecA FAcg|fdfa c'bad|(3fga fd (3Bcd (3cBA|
~G2 (3BAG dBga|bged cBAd|g/f/e cA edBG|FA (3DEF G3||

